!!!OTL: 436. Jm Rhein, im ſchoenen Strome.
!!!ODT: 1838
!!!ARE: Europa, Mitteleuropa, Deutschland, Spandau
!!!SCT: B0436
!!!TXL: @@DE
!!!YEM: Copyright 1995, estate of Helmut Schaffrath.
**kern	**text
*ICvox	*
*Ivox	*
*clefG2	*
*M6/8	*
*k[b-e-a-d-]	*
*A-:	*
!LO:TX:a:t=Feierlich langsam.	!
{8e-	Jm
=1	=1
4cc	Rhein,
8cc	im
4ee-	ſchö-
8dd-	-nen
=2	=2
4.cc	Stro-
4a-}	-me,
{8a-	da
=3	=3
4g	ſpiegelt
8g	ſich
4a-	in
8f	den
=4	=4
[4.g	Well'n
4g]}	.
{8g	mit
=5	=5
4a-	ſeinem
8a-	.
4cc	gro-
8b-	-ßen
=6	=6
4.a-	Do-
4f}	-me
{8f	das
=7	=7
4e-	gro-
8a-	-ße
4g	heil'-
8b-	-ge
=8	=8
[4.a-	Köln.
4a-]}	.
==	==
!!!AGN: Liebes - Lied, Liebes - Lust, religioes
!!!GTL: Liebeslieder - Liebeslust
!!!ONB: ESAC (Essen Associative Code) Database: BOEHME
!!!AMT: compound duple
!!!AIN: vox
!!!EED: Helmut Schaffrath
!!!EEV: 1.0
!!Mel. 1838 in Spandau von einem jungen Mann geſungen. Verf. unbekannt
!!@@COMMENT:"Gedicht von H. Heine 1823 im "Buch der Lieder" von H. Heine. Hamburg 1627. S. 120,
!!Nr. XJ unter Rubrik Lyriſches Jntermeʒʒo (1822-1823)". Schon gedruckt in Tragödien nebſt einem
!!lyr. Jntermeʒʒo" von H. Heine. Berlin 1823. S. 94."
!!@@END:
!!!Text: H. Heine
!!!URL-scan: https://archive.org/details/BoehmeVtLieder1895/page/n355/mode/2up
!!!ENC: Anna Maria Matuszewska
!!!EEV: 2024/09/07
*-	*-
